svg/blobs-icons/no-decorations/pot-with-lid.svg

<svg xmlns="http://www.w3.org/2000/svg" xmlns:xlink="http://www.w3.org/1999/xlink" preserveAspectRatio="xMidYMid" width="168" height="217" viewBox="0 0 168 217"><defs><style>.cls-3{fill:#fbb713}.cls-4{fill:#fff}.cls-5{fill:#020403;opacity:.25}.cls-6{fill:#142a3b}.cls-7{fill:#000;opacity:.35}.cls-8{fill:#ff3a2f}</style></defs><g id="group-12svg"><path d="M167.17 125.786C167.284 121.787 167.362 124.099 167.362 122.286c0-46.168-37.425-82.648-83.591-82.648C37.605 39.638.18 75.645.18 121.813.18 123.626.257 121.787.372 125.786H167.17z" id="path-1" class="cls-3" fill-rule="evenodd"/><path d="M17.685 110.668C15.689 110.668 14.07 109.05 14.07 107.054c0-28.867 23.415-52.35 52.196-52.35C68.262 54.704 69.88 56.323 69.88 58.319 69.88 60.315 68.262 61.933 66.266 61.933c-24.795.0-44.967 20.241-44.967 45.121.0 1.996-1.618 3.614-3.614 3.614z" id="path-2" class="cls-4" fill-rule="evenodd"/><path d="M108.395 43.095c17.17 15.357 28.045 37.63 28.045 62.444C136.44 107.352 136.363 106.89 136.248 111.281H.931C.375 115.182-.012 119.136-.012 123.187-.012 125.001.863 124.452.977 128.841H166.979C167.092 124.452 167.17 124.914 167.17 123.101c0-37.528-24.726-69.392-58.775-80.006z" id="path-3" class="cls-5" fill-rule="evenodd"/><path d="M144.695 215.784s-121.849.0-121.849.0S.18 125.786.18 125.786s167.182.0 167.182.0-22.667 89.998-22.667 89.998z" id="path-4" class="cls-6" fill-rule="evenodd"/><path d="M135.861 125.637s-19.428 79.021-19.428 79.021S19.935 203.55 19.935 203.55s3.238 13.171 3.238 13.171S144.695 216.787 144.695 216.787s22.475-91.15 22.475-91.15-31.309.0-31.309.0z" id="path-5" class="cls-7" fill-rule="evenodd"/><path d="M103.618 19.853c0 10.963-8.886 19.849-19.847 19.849S63.924 30.816 63.924 19.853C63.924 8.892 72.81.006 83.771.006s19.847 8.886 19.847 19.847z" id="path-6" class="cls-8" fill-rule="evenodd"/><path d="M89.846 15.463c0 5.78-4.685 10.466-10.466 10.466-5.779.0-10.464-4.686-10.464-10.466.0-5.779 4.685-10.465 10.464-10.465C85.161 4.998 89.846 9.684 89.846 15.463z" id="path-7" class="cls-4" fill-rule="evenodd"/></g></svg>

<svg xmlns="http://www.w3.org/2000/svg" xmlns:xlink="http://www.w3.org/1999/xlink" preserveAspectRatio="xMidYMid" width="168" height="217" viewBox="0 0 168 217">
  <defs>
    <style>

      .cls-3 {
        fill: #fbb713;
      }

      .cls-4 {
        fill: #ffffff;
      }

      .cls-5 {
        fill: #020403;
        opacity: 0.25;
      }

      .cls-6 {
        fill: #142a3b;
      }

      .cls-7 {
        fill: #000000;
        opacity: 0.35;
      }

      .cls-8 {
        fill: #ff3a2f;
      }
    </style>
  </defs>
  <g id="group-12svg">
    <path d="M167.170,125.786 C167.284,121.787 167.362,124.099 167.362,122.286 C167.362,76.118 129.937,39.638 83.771,39.638 C37.605,39.638 0.180,75.645 0.180,121.813 C0.180,123.626 0.257,121.787 0.372,125.786 C0.372,125.786 167.170,125.786 167.170,125.786 Z" id="path-1" class="cls-3" fill-rule="evenodd"/>
    <path d="M17.685,110.668 C15.689,110.668 14.070,109.050 14.070,107.054 C14.070,78.187 37.485,54.704 66.266,54.704 C68.262,54.704 69.880,56.323 69.880,58.319 C69.880,60.315 68.262,61.933 66.266,61.933 C41.471,61.933 21.299,82.174 21.299,107.054 C21.299,109.050 19.681,110.668 17.685,110.668 Z" id="path-2" class="cls-4" fill-rule="evenodd"/>
    <path d="M108.395,43.095 C125.565,58.452 136.440,80.725 136.440,105.539 C136.440,107.352 136.363,106.890 136.248,111.281 C136.248,111.281 0.931,111.281 0.931,111.281 C0.375,115.182 -0.012,119.136 -0.012,123.187 C-0.012,125.001 0.863,124.452 0.977,128.841 C0.977,128.841 166.979,128.841 166.979,128.841 C167.092,124.452 167.170,124.914 167.170,123.101 C167.170,85.573 142.444,53.709 108.395,43.095 Z" id="path-3" class="cls-5" fill-rule="evenodd"/>
    <path d="M144.695,215.784 C144.695,215.784 22.846,215.784 22.846,215.784 C22.846,215.784 0.180,125.786 0.180,125.786 C0.180,125.786 167.362,125.786 167.362,125.786 C167.362,125.786 144.695,215.784 144.695,215.784 Z" id="path-4" class="cls-6" fill-rule="evenodd"/>
    <path d="M135.861,125.637 C135.861,125.637 116.433,204.658 116.433,204.658 C116.433,204.658 19.935,203.550 19.935,203.550 C19.935,203.550 23.173,216.721 23.173,216.721 C23.173,216.721 144.695,216.787 144.695,216.787 C144.695,216.787 167.170,125.637 167.170,125.637 C167.170,125.637 135.861,125.637 135.861,125.637 Z" id="path-5" class="cls-7" fill-rule="evenodd"/>
    <path d="M103.618,19.853 C103.618,30.816 94.732,39.702 83.771,39.702 C72.810,39.702 63.924,30.816 63.924,19.853 C63.924,8.892 72.810,0.006 83.771,0.006 C94.732,0.006 103.618,8.892 103.618,19.853 Z" id="path-6" class="cls-8" fill-rule="evenodd"/>
    <path d="M89.846,15.463 C89.846,21.243 85.161,25.929 79.380,25.929 C73.601,25.929 68.916,21.243 68.916,15.463 C68.916,9.684 73.601,4.998 79.380,4.998 C85.161,4.998 89.846,9.684 89.846,15.463 Z" id="path-7" class="cls-4" fill-rule="evenodd"/>
  </g>
</svg>
